X:1
T:Desperado
M:4/4
L:1/4
K:C
 C| C c B A| G E C D| E E E E| E3 D| C c B A| G E C E| D D D D| D3 D|\
 C c B A| G E C D| E E E E| E3 G| A B c A| G E C E| D4| C G A B| c2 A2|\
 G2 E D| z C2 D| E G2 G| c2 A2| G A B c| z d2 B| A G A B| c2 A2| G2 E D|\
 z C2 D| E G2 G| A B c A| G E C E| D4| C3||
